fs/fingerprint_48_regular.svg

<svg viewBox="0 0 48 48" fill="none" xmlns="http://www.w3.org/2000/svg" height="1em" width="1em">
  <path d="M14.9007 9.81738C17.29 8.36129 20.7026 7.58637 24.2581 7.70524C27.8071 7.82389 31.3507 8.82838 34.0163 10.7618C34.5752 11.1672 35.3568 11.0427 35.7621 10.4839C36.1675 9.92505 36.043 9.14344 35.4842 8.73811C32.3237 6.44571 28.2632 5.33775 24.3416 5.20663C20.4266 5.07574 16.5022 5.91374 13.5997 7.68256C13.0102 8.04182 12.8235 8.81095 13.1828 9.40046C13.542 9.98998 14.3112 10.1766 14.9007 9.81738ZM25.3974 11.0053C24.7119 10.9239 24.0902 11.4137 24.0088 12.0993C23.9275 12.7848 24.4173 13.4065 25.1028 13.4879C32.932 14.4171 38.0269 20.4636 39.5189 28.9661C39.6383 29.646 40.2862 30.1005 40.9662 29.9812C41.6461 29.8619 42.1006 29.2139 41.9813 28.534C40.3573 19.2791 34.6264 12.1006 25.3974 11.0053ZM18.6952 21.0847C14.8779 24.1395 12.6928 30.7559 16.87 39.1955C17.1762 39.8143 16.9229 40.5641 16.3042 40.8703C15.6854 41.1765 14.9356 40.9232 14.6294 40.3045C10.0459 31.0439 12.2105 23.0721 17.1331 19.1328C19.5719 17.1812 22.6549 16.2677 25.7645 16.7563C28.8848 17.2466 31.9095 19.1278 34.2764 22.5372C34.6701 23.1043 34.5296 23.8831 33.9625 24.2768C33.3954 24.6705 32.6165 24.53 32.2228 23.9629C30.1894 21.0339 27.7314 19.596 25.3765 19.226C23.0109 18.8543 20.6264 19.5392 18.6952 21.0847ZM23.3735 41.1955C20.814 36.0242 20.0335 31.6546 20.4979 28.7624C20.7282 27.3281 21.2471 26.349 21.9015 25.761C22.5322 25.1943 23.4119 24.8788 24.6321 24.9944C26.2555 25.1484 27.0148 25.682 27.484 26.3191C28.0261 27.0552 28.3118 28.0893 28.6378 29.5624C28.6701 29.7085 28.7026 29.8575 28.7356 30.0091C29.3415 32.7927 30.1409 36.4656 34.0221 39.2639C34.5821 39.6677 35.3633 39.541 35.7671 38.981C36.1708 38.421 36.0442 37.6398 35.4842 37.236C32.3933 35.0075 31.7741 32.1878 31.1579 29.3816C31.1315 29.2617 31.1052 29.1419 31.0787 29.0222C30.7684 27.6196 30.4 26.0628 29.497 24.8367C28.5212 23.5116 27.0445 22.712 24.868 22.5056C23.0577 22.334 21.455 22.8013 20.2306 23.9014C19.0298 24.9803 18.3208 26.5519 18.0295 28.366C17.4507 31.9706 18.4522 36.8884 21.1329 42.3045C21.4391 42.9232 22.189 43.1765 22.8077 42.8703C23.4264 42.564 23.6797 41.8142 23.3735 41.1955ZM11.6875 10.9231C12.1442 11.4407 12.0948 12.2307 11.5771 12.6874C9.98077 14.0957 8.90405 15.514 7.83353 17.3736C7.48911 17.9719 6.72488 18.1778 6.12658 17.8333C5.52828 17.4889 5.32247 16.7247 5.66689 16.1264C6.8434 14.0826 8.08271 12.4364 9.92316 10.8127C10.4408 10.3559 11.2308 10.4054 11.6875 10.9231ZM36.2353 28.5579C36.1292 27.8757 35.4902 27.4088 34.8081 27.5148C34.1259 27.6209 33.6589 28.2599 33.765 28.9421C34.2746 32.2188 35.9699 34.2895 38.0201 35.7646C38.5805 36.1678 39.3616 36.0404 39.7648 35.48C40.168 34.9197 40.0406 34.1385 39.4802 33.7353C37.8546 32.5657 36.6216 31.0413 36.2353 28.5579ZM24.1566 28.5035C24.8451 28.4519 25.445 28.9682 25.4966 29.6566C25.802 33.7323 27.2938 37.1841 29.6912 39.9274C30.1455 40.4472 30.0924 41.2369 29.5726 41.6912C29.0527 42.1455 28.2631 42.0924 27.8088 41.5725C25.047 38.4123 23.3485 34.4455 23.0036 29.8434C22.952 29.155 23.4682 28.5551 24.1566 28.5035ZM20.2347 13.9022C20.871 13.6345 21.1698 12.9016 20.9021 12.2653C20.6344 11.629 19.9016 11.3301 19.2652 11.5978C10.2936 15.3722 5.82054 23.813 7.00871 33.8963C7.0895 34.5819 7.71079 35.0722 8.3964 34.9914C9.08201 34.9106 9.57232 34.2894 9.49153 33.6037C8.41932 24.5045 12.3986 17.1988 20.2347 13.9022Z" fill="#212121"/>
</svg>

<svg viewBox="0 0 48 48" fill="none" xmlns="http://www.w3.org/2000/svg" height="1em" width="1em">
  <path d="M14.9 9.817c2.39-1.456 5.803-2.23 9.358-2.112 3.55.119 7.093 1.123 9.758 3.057a1.25 1.25 0 1 0 1.468-2.024c-3.16-2.292-7.22-3.4-11.142-3.531-3.915-.131-7.84.707-10.742 2.476a1.25 1.25 0 1 0 1.3 2.134Zm10.497 1.188a1.25 1.25 0 1 0-.294 2.483c7.829.93 12.924 6.976 14.416 15.478a1.25 1.25 0 0 0 2.462-.432c-1.624-9.255-7.355-16.433-16.584-17.529Zm-6.702 10.08c-3.817 3.055-6.002 9.67-1.825 18.11a1.25 1.25 0 0 1-2.24 1.11c-4.584-9.261-2.42-17.233 2.503-21.172 2.439-1.952 5.522-2.865 8.632-2.377 3.12.49 6.145 2.372 8.511 5.781a1.25 1.25 0 1 1-2.053 1.426c-2.034-2.93-4.492-4.367-6.846-4.737-2.366-.372-4.75.313-6.682 1.859Zm4.678 20.11c-2.559-5.17-3.34-9.54-2.875-12.433.23-1.434.75-2.413 1.403-3.001.631-.567 1.51-.882 2.731-.767 1.623.154 2.383.688 2.852 1.325.542.736.828 1.77 1.154 3.243l.098.447c.605 2.784 1.405 6.457 5.286 9.255a1.25 1.25 0 1 0 1.462-2.028c-3.09-2.228-3.71-5.048-4.326-7.854l-.08-.36c-.31-1.402-.678-2.96-1.581-4.185-.976-1.325-2.453-2.125-4.629-2.331-1.81-.172-3.413.295-4.637 1.395-1.201 1.08-1.91 2.65-2.202 4.465-.578 3.605.423 8.522 3.104 13.938a1.25 1.25 0 0 0 2.24-1.108ZM11.688 10.924a1.25 1.25 0 0 1-.11 1.764c-1.596 1.409-2.673 2.827-3.743 4.687a1.25 1.25 0 1 1-2.167-1.248c1.176-2.043 2.416-3.69 4.256-5.313a1.25 1.25 0 0 1 1.764.11Zm24.548 17.635a1.25 1.25 0 0 0-2.47.384c.51 3.277 2.205 5.347 4.255 6.823a1.25 1.25 0 1 0 1.46-2.03c-1.625-1.17-2.858-2.694-3.245-5.177Zm-12.078-.055a1.25 1.25 0 0 1 1.34 1.154c.305 4.075 1.797 7.527 4.194 10.27a1.25 1.25 0 1 1-1.882 1.645c-2.762-3.16-4.46-7.127-4.805-11.729a1.25 1.25 0 0 1 1.153-1.34Zm-3.922-14.6a1.25 1.25 0 0 0-.97-2.305C10.294 15.372 5.821 23.813 7.01 33.896a1.25 1.25 0 1 0 2.483-.292c-1.073-9.1 2.907-16.405 10.743-19.702Z" fill="#212121"/>
</svg>
